X: 59
T:Gloomy Winter. JMT.056
M:C
L:1/8
Q:60
S:J.Moore,Tyneside,1841.(42a)
R:Air
O:England
A:Northumbria
Z:vmp.Chris Partington
K:C
A>A A>B AGE2|c>c c>e d>cB2|A>A eA A>G EC|D>DE>^G AA,A,2:|!
|:C>C CE DC C2 |C>A, A,>C B,E E2|c>c c>e d>c Bd|cA (c/B/A/G/) E>AA2|!
c>c g>c B>cd2|A/-c/B/-e/ c/-B/A/-G/ A>ee2|
E>G (G/F/E/D/) EG Bd|cA (c/B/A/G/) E>AA2:|}
